T: Horse's Leotard, The
M: 6/8
L: 1/8
K: Dmix
|: G3 dcA | cde fef | G2 d dcA | c(f)d cAd | G2 G dcA | cde f2 g | agf dfd | cfd cAF :||: de^f g2 g | ag^f g2 =f | de^f g2 g | bag ag^f | bBb aba | g^fd =f2 c | cde f2 d | cfd cAF :||: D2 D AGE | GAB c3 | D2 D AGE | GcA GEC | D2 A AGE | GAB c2 d | edc dcA | GcA GEC :||: ABc d2 d | edc d2 c | ABc d2 e | =fed cAG | ABc d2 d | edc dcA | GAB cBA | GcA GEC :|
